X: 43053
T: Wind Swept Hill Of Tulla, The
R: waltz
M: 3/4
K: Fdorian
AB||c4 B2|A4 G2|F3 G FE|C3 C CD|E2 (F4|F4) C2
|:F4 G2|A4 B2|c3 B cd|e2 (f4|f4) f2|
f3 e d2|B4 cd|e3 d B2|1 (c6|c4) C2:|2 (c6|c4) c2||
c4 B2|A4 G2|F3 G FE|C3 C CD|E2 (F4|F6)||

